svgs/sharp-thin/folder-tree.svg

<svg xmlns="http://www.w3.org/2000/svg" viewBox="0 0 576 512"><!--! Font Awesome Pro 6.6.0 by @fontawesome - https://fontawesome.com License - https://fontawesome.com/license (Commercial License) Copyright 2024 Fonticons, Inc. --><path d="M0 0L0 128 0 416l0 8 8 0 248 0 0-16L16 408l0-272 240 0 0-16L16 120 16 0 0 0zM433.4 48l6.6 0 120 0 0 160-256 0 0-192 97.4 0 27.3 27.3 4.7 4.7zM560 32L440 32 408 0 304 0 288 0l0 16 0 192 0 16 16 0 256 0 16 0 0-16 0-160 0-16-16 0zM433.4 336l6.6 0 120 0 0 160-256 0 0-192 97.4 0 27.3 27.3 4.7 4.7zM560 320l-120 0-32-32-104 0-16 0 0 16 0 192 0 16 16 0 256 0 16 0 0-16 0-160 0-16-16 0z"/></svg>

<svg xmlns="http://www.w3.org/2000/svg" viewBox="0 0 576 512"><!--! Font Awesome Pro 6.5.2 by @fontawesome - https://fontawesome.com License - https://fontawesome.com/license (Commercial License) Copyright 2024 Fonticons, Inc. --><path d="M0 0V128 416v8H8 256V408H16V136H256V120H16V0H0zM433.4 48H440 560V208H304V16h97.4l27.3 27.3 4.7 4.7zM560 32H440L408 0H304 288V16 208v16h16H560h16V208 48 32H560zM433.4 336H440 560V496H304V304h97.4l27.3 27.3 4.7 4.7zM560 320H440l-32-32H304 288v16V496v16h16H560h16V496 336 320H560z"/></svg>
